Themes/OneUI/assets/svg/messages-app.svg

<?xml version="1.0" encoding="UTF-8" standalone="no"?>
<svg
   width="21.000031"
   height="21.000025"
   viewBox="0 0 21.000031 21.000025"
   fill="none"
   version="1.1"
   id="svg1290"
   sodipodi:docname="messages-app.svg"
   xmlns:inkscape="http://www.inkscape.org/namespaces/inkscape"
   xmlns:sodipodi="http://sodipodi.sourceforge.net/DTD/sodipodi-0.dtd"
   xmlns="http://www.w3.org/2000/svg"
   xmlns:svg="http://www.w3.org/2000/svg">
  <sodipodi:namedview
     id="namedview1292"
     pagecolor="#ffffff"
     bordercolor="#666666"
     borderopacity="1.0"
     inkscape:showpageshadow="2"
     inkscape:pageopacity="0.0"
     inkscape:pagecheckerboard="0"
     inkscape:deskcolor="#d1d1d1" />
  <g
     clip-path="url(#clip0_1_2585)"
     id="g1283">
    <path
       d="M 18.6418,2.35824 C 17.3475,1.14114 15.5803,0.451044 13.6304,0.192944 11.768,-0.0539557 10.4999,0.00654435 10.4999,0.00654435 c 0,0 -1.26833,-0.06050005 -3.13043,0.18639965 -1.9502,0.2581 -3.717,0.948196 -5.0111,2.165296 h -3e-4 c -1.2169,1.2944 -1.907198,3.0613 -2.165498,5.0113 -0.2469004,1.8624 -0.18590036,3.13066 -0.18590036,3.13066 0,0 -0.06100004,1.2678 0.18590036,3.1304 0.2583,1.9498 0.948598,3.7168 2.165498,5.0111 l 3e-4,3e-4 c 1.2941,1.2168 3.0609,1.9072 5.0111,2.1654 1.8621,0.2468 3.13043,0.186 3.13043,0.186 0,0 1.2681,0.0608 3.1305,-0.186 1.9499,-0.2582 3.7171,-0.9486 5.0111,-2.1654 l 3e-4,-3e-4 c 1.2173,-1.2943 1.9072,-3.0613 2.1658,-5.0111 0.2466,-1.8626 0.1858,-3.1304 0.1858,-3.1304 0,0 0.0608,-1.26826 -0.1858,-3.13066 -0.2586,-1.95 -0.9485,-3.7169 -2.1658,-5.0113 z"
       fill="#0c81de"
       id="path1273" />
    <path
       d="M 16.0416,5.8334 C 15.6991,5.4907 15.219,5.25 14.2916,5.25 H 6.7083 C 5.781,5.25 5.3009,5.4907 4.9583,5.8334 4.6156,6.1761 4.375,6.656 4.375,7.5834 V 12.25 c 0,0.9272 0.2406,1.4073 0.5833,1.75 0.3426,0.3427 0.8227,0.5833 1.75,0.5833 h 0.875 v 2.3333 l 2.3334,-2.3333 h 4.3749 c 0.9274,0 1.4075,-0.2406 1.75,-0.5833 0.3428,-0.3427 0.5834,-0.8228 0.5834,-1.75 V 7.5834 c 0,-0.9274 -0.2406,-1.4073 -0.5834,-1.75 z"
       fill="#ffffff"
       id="path1275" />
    <path
       d="m 6.99991,11.0834 c -0.6443,0 -1.1666,-0.5221 -1.1666,-1.1667 0,-0.6446 0.5223,-1.1667 1.1666,-1.1667 0.6444,0 1.1668,0.5221 1.1668,1.1667 0,0.6446 -0.5224,1.1667 -1.1668,1.1667 z"
       fill="#005aab"
       id="path1277" />
    <path
       d="m 10.4999,11.0834 c -0.64429,0 -1.16659,-0.5221 -1.16659,-1.1667 0,-0.6446 0.5223,-1.1667 1.16659,-1.1667 0.6444,0 1.1668,0.5221 1.1668,1.1667 0,0.6446 -0.5224,1.1667 -1.1668,1.1667 z"
       fill="#005aab"
       id="path1279" />
    <path
       d="m 13.9999,11.0834 c -0.6443,0 -1.1666,-0.5221 -1.1666,-1.1667 0,-0.6446 0.5223,-1.1667 1.1666,-1.1667 0.6444,0 1.1668,0.5221 1.1668,1.1667 0,0.6446 -0.5224,1.1667 -1.1668,1.1667 z"
       fill="#005aab"
       id="path1281" />
  </g>
  <defs
     id="defs1288">
    <clipPath
       id="clip0_1_2585">
      <rect
         width="21"
         height="21"
         fill="#ffffff"
         id="rect1285"
         x="0"
         y="0" />
    </clipPath>
  </defs>
</svg>

<svg width="21" height="21" viewBox="0 0 21 21" fill="none" xmlns="http://www.w3.org/2000/svg">
<g clip-path="url(#clip0_1_2585)">
<path d="M18.6418 2.35824C17.3475 1.14114 15.5803 0.451044 13.6304 0.192944C11.768 -0.0539557 10.4999 0.00654435 10.4999 0.00654435C10.4999 0.00654435 9.23157 -0.0539557 7.36947 0.192944C5.41927 0.451044 3.65247 1.14114 2.35837 2.35824H2.35807C1.14117 3.65264 0.450872 5.41954 0.192572 7.36954C-0.0543284 9.23194 0.00667164 10.5002 0.00667164 10.5002C0.00667164 10.5002 -0.0543284 11.768 0.192572 13.6306C0.450872 15.5804 1.14117 17.3474 2.35807 18.6417L2.35837 18.642C3.65247 19.8588 5.41927 20.5492 7.36947 20.8074C9.23157 21.0542 10.4999 20.9934 10.4999 20.9934C10.4999 20.9934 11.768 21.0542 13.6304 20.8074C15.5803 20.5492 17.3475 19.8588 18.6415 18.642L18.6418 18.6417C19.8591 17.3474 20.549 15.5804 20.8076 13.6306C21.0542 11.768 20.9934 10.5002 20.9934 10.5002C20.9934 10.5002 21.0542 9.23194 20.8076 7.36954C20.549 5.41954 19.8591 3.65264 18.6418 2.35824Z" fill="#0C81DE"/>
<path d="M16.0416 5.8334C15.6991 5.4907 15.219 5.25 14.2916 5.25H6.7083C5.781 5.25 5.3009 5.4907 4.9583 5.8334C4.6156 6.1761 4.375 6.656 4.375 7.5834V12.25C4.375 13.1772 4.6156 13.6573 4.9583 14C5.3009 14.3427 5.781 14.5833 6.7083 14.5833H7.5833V16.9166L9.9167 14.5833H14.2916C15.219 14.5833 15.6991 14.3427 16.0416 14C16.3844 13.6573 16.625 13.1772 16.625 12.25V7.5834C16.625 6.656 16.3844 6.1761 16.0416 5.8334Z" fill="white"/>
<path d="M6.99991 11.0834C6.35561 11.0834 5.83331 10.5613 5.83331 9.9167C5.83331 9.2721 6.35561 8.75 6.99991 8.75C7.64431 8.75 8.16671 9.2721 8.16671 9.9167C8.16671 10.5613 7.64431 11.0834 6.99991 11.0834Z" fill="#005AAB"/>
<path d="M10.4999 11.0834C9.85561 11.0834 9.33331 10.5613 9.33331 9.9167C9.33331 9.2721 9.85561 8.75 10.4999 8.75C11.1443 8.75 11.6667 9.2721 11.6667 9.9167C11.6667 10.5613 11.1443 11.0834 10.4999 11.0834Z" fill="#005AAB"/>
<path d="M13.9999 11.0834C13.3556 11.0834 12.8333 10.5613 12.8333 9.9167C12.8333 9.2721 13.3556 8.75 13.9999 8.75C14.6443 8.75 15.1667 9.2721 15.1667 9.9167C15.1667 10.5613 14.6443 11.0834 13.9999 11.0834Z" fill="#005AAB"/>
</g>
<defs>
<clipPath id="clip0_1_2585">
<rect width="21" height="21" fill="white"/>
</clipPath>
</defs>
</svg>
